X:1
T:Miss Drummond of Perth
T:Miss Drummond of Perth
T:Niel Gow
C:Niel Gow
L:1/8
Q:1/8=232
M:4/4
K:A
V:1 treble 
V:1
|: f | eA cA c/d/e =g2 | d=G BG Bd df | eA cA c/d/e f2 | eA cA ce ef | eA cA c/d/e =g2 | %6
 d=G BG Bd df | eA cA c/d/e f2 | eA cA ce ec | Aa ec ea ec | d/c/B/A/ B=G Bd dB | Aa ec ea ec | %12
 a/=g/f/e/ aA ce ec | Aa ec ea ec | d/c/B/A/ B=G Bd df | eA cA cd/e/ f2 | eA cA cee :| %17

